src/assets/icons/sign-out.svg

<svg width="14" height="14" viewBox="0 0 14 14" fill="none" xmlns="http://www.w3.org/2000/svg">
<g id="sign-out">
<g clip-path="url(#clip0_156_4632)">
<path id="Vector" fill-rule="evenodd" clip-rule="evenodd" d="M2.2 1.2C1.58349 1.2 1.2 1.6354 1.2 2.024V11.976C1.2 12.3646 1.58349 12.8 2.2 12.8H4.6C4.93137 12.8 5.2 13.0686 5.2 13.4C5.2 13.7314 4.93137 14 4.6 14H2.2C1.05651 14 0 13.1554 0 11.976V2.024C0 0.844599 1.05651 0 2.2 0H4.6C4.93137 0 5.2 0.268629 5.2 0.6C5.2 0.931371 4.93137 1.2 4.6 1.2H2.2ZM9.77574 3.37574C10.0101 3.14142 10.3899 3.14142 10.6243 3.37574L13.8243 6.57574C13.9414 6.69289 14 6.84645 14 7C14 7.08135 13.9838 7.15893 13.9545 7.22967C13.9252 7.30044 13.8818 7.36674 13.8243 7.42426L10.6243 10.6243C10.3899 10.8586 10.0101 10.8586 9.77574 10.6243C9.54142 10.3899 9.54142 10.0101 9.77574 9.77574L11.9515 7.6H4.6C4.26863 7.6 4 7.33137 4 7C4 6.66863 4.26863 6.4 4.6 6.4H11.9515L9.77574 4.22426C9.54142 3.98995 9.54142 3.61005 9.77574 3.37574Z" fill="black"/>
</g>
</g>
<defs>
<clipPath id="clip0_156_4632">
<rect width="14" height="14" fill="white"/>
</clipPath>
</defs>
</svg>

<svg xmlns="http://www.w3.org/2000/svg" fill="none" viewBox="0 0 14 14"><g clip-path="url(#a)"><path fill="#000" fill-rule="evenodd" d="M2.2 1.2c-.617 0-1 .435-1 .824v9.952c0 .389.383.824 1 .824h2.4a.6.6 0 1 1 0 1.2H2.2C1.057 14 0 13.155 0 11.976V2.024C0 .844 1.057 0 2.2 0h2.4a.6.6 0 0 1 0 1.2zm7.576 2.176a.6.6 0 0 1 .848 0l3.2 3.2a.6.6 0 0 1 0 .848l-3.2 3.2a.6.6 0 0 1-.848-.848L11.95 7.6H4.6a.6.6 0 0 1 0-1.2h7.352L9.776 4.224a.6.6 0 0 1 0-.848" clip-rule="evenodd"/></g><defs><clipPath id="a"><path fill="#fff" d="M0 0h14v14H0z"/></clipPath></defs></svg>
